X: 43121
T: Wing Commander Donald Mackenzie's
R: reel
M: 4/4
K: Amajor
cE E2 cEBc|AFFE FAEA|F3E FGAB|cBAB cffe|cE E2 cEBc|
AFFE FAEA|F3E FGAB|1 ceBc A3B:|2 ceBc ABce||
|:aefe c2Bc|AFEF ABce|fbba fbaf|ecAB cBce|
aefe c2Bc|AFEF ABce|fbba fbaf|1 ecBc ABce:|2 ecBc A3B||

